assets/svg/1F3A1.svg

<svg xmlns="http://www.w3.org/2000/svg" viewBox="0 0 64 64" enable-background="new 0 0 64 64"><path fill="#4f8fb5" d="M63.668,56.804c0,3.794-3.07,6.868-6.862,6.868H6.86c-3.788,0-6.86-3.074-6.86-6.868V6.864
		C0,3.074,3.072,0,6.86,0h49.945c3.792,0,6.862,3.074,6.862,6.864V56.804z"/><path fill="#2e6278" d="M0,48.48v8.323c0,3.794,3.072,6.868,6.86,6.868h49.945c3.792,0,6.862-3.074,6.862-6.868V6.864
		C52.797,46.356,13.713,48.859,0,48.48z"/><g fill="#e7e6e6"><circle cx="31.729" cy="31.764" r="8.11"/><path d="m31.73 2.3c-14.784 0-26.812 12.02-26.812 26.808s12.03 26.81 26.812 26.81c14.78 0 26.804-12.03 26.804-26.81s-12.02-26.808-26.804-26.808m0 49.28c-12.389 0-22.471-10.08-22.471-22.468s10.08-22.468 22.471-22.468c12.387 0 22.467 10.08 22.467 22.468s-10.08 22.468-22.467 22.468"/></g><path fill="#de374b" d="m43.84 61.37h-24.22l2.687-26.694h18.842z"/><path fill="#c5344d" d="m23.595 34.676h-1.312l-2.691 26.694h24.22l-.251-2.478c-11.12-2.99-14.892-4.091-19.967-24.22"/><g fill="#de374b"><path d="m16.545 24.678c0 2.401-1.946 4.348-4.348 4.348h-5.874c-2.4 0-4.35-1.946-4.35-4.348l0 0c0-2.399 1.95-4.345 4.35-4.345h5.875c2.401 0 4.347 1.946 4.347 4.345l0 0"/><path d="m18.901 45.02c0 2.402-1.944 4.346-4.346 4.346h-5.874c-2.401 0-4.348-1.943-4.348-4.346l0 0c0-2.401 1.946-4.347 4.348-4.347h5.875c2.402.0001 4.345 1.946 4.345 4.347l0 0"/><path d="m59.872 42.818c0 2.402-1.944 4.348-4.346 4.348h-5.876c-2.4 0-4.348-1.945-4.348-4.348l0 0c0-2.399 1.947-4.345 4.348-4.345h5.876c2.402.0001 4.346 1.946 4.346 4.345l0 0"/><path d="m61.694 24.678c0 2.401-1.945 4.348-4.349 4.348h-5.875c-2.397 0-4.348-1.946-4.348-4.348l0 0c0-2.399 1.95-4.345 4.348-4.345h5.875c2.404 0 4.349 1.946 4.349 4.345l0 0"/><path d="m53.677 10.987c0 2.401-1.944 4.347-4.346 4.347h-5.875c-2.399 0-4.349-1.946-4.349-4.347l0 0c0-2.399 1.949-4.347 4.349-4.347h5.875c2.401 0 4.346 1.947 4.346 4.347l0 0"/><path d="m26.904 8.748c0 2.401-1.946 4.346-4.347 4.346h-5.875c-2.399 0-4.347-1.944-4.347-4.346l0 0c0-2.401 1.948-4.347 4.347-4.347h5.875c2.401-.0001 4.347 1.945 4.347 4.347l0 0"/></g></svg>

<?xml version="1.0" encoding="utf-8"?>
<!-- Generator: Adobe Illustrator 16.0.0, SVG Export Plug-In . SVG Version: 6.00 Build 0)  -->
<!DOCTYPE svg PUBLIC "-//W3C//DTD SVG 1.1//EN" "http://www.w3.org/Graphics/SVG/1.1/DTD/svg11.dtd">
<svg version="1.1" id="Layer_1" xmlns="http://www.w3.org/2000/svg" xmlns:xlink="http://www.w3.org/1999/xlink" x="0px" y="0px"
	 width="64px" height="64px" viewBox="0 0 64 64" enable-background="new 0 0 64 64" xml:space="preserve">
<g>
	<path fill="#4F8FB5" d="M63.668,56.804c0,3.794-3.07,6.868-6.862,6.868H6.86c-3.788,0-6.86-3.074-6.86-6.868V6.864
		C0,3.074,3.072,0,6.86,0h49.945c3.792,0,6.862,3.074,6.862,6.864V56.804z"/>
	<path fill="#2E6278" d="M0,48.48v8.323c0,3.794,3.072,6.868,6.86,6.868h49.945c3.792,0,6.862-3.074,6.862-6.868V6.864
		C52.797,46.356,13.713,48.859,0,48.48z"/>
	<g>
		<circle fill="#E7E6E6" cx="31.729" cy="31.764" r="8.11"/>
		<path fill="none" d="M31.73,6.64C19.341,6.64,9.26,16.719,9.26,29.108S19.341,51.576,31.73,51.576
			c12.387,0,22.467-10.079,22.467-22.468S44.117,6.64,31.73,6.64z"/>
		<path fill="#E7E6E6" d="M31.73,2.3C16.946,2.3,4.918,14.325,4.918,29.108s12.027,26.81,26.812,26.81
			c14.78,0,26.804-12.027,26.804-26.81S46.511,2.3,31.73,2.3z M31.73,51.576c-12.389,0-22.471-10.079-22.471-22.468
			S19.341,6.64,31.73,6.64c12.387,0,22.467,10.079,22.467,22.468S44.117,51.576,31.73,51.576z"/>
		<polygon fill="#DE374B" points="43.84,61.37 19.621,61.37 22.308,34.676 41.145,34.676 		"/>
		<path fill="#C5344D" d="M23.595,34.676h-1.312L19.592,61.37h24.221l-0.251-2.478C32.442,55.902,28.67,54.801,23.595,34.676z"/>
		<path fill="#DE374B" d="M16.545,24.678c0,2.401-1.946,4.348-4.348,4.348H6.323c-2.4,0-4.35-1.946-4.35-4.348l0,0
			c0-2.399,1.95-4.345,4.35-4.345h5.875C14.599,20.333,16.545,22.279,16.545,24.678L16.545,24.678z"/>
		<path fill="#DE374B" d="M18.901,45.024c0,2.402-1.944,4.346-4.346,4.346H8.681c-2.401,0-4.348-1.943-4.348-4.346l0,0
			c0-2.401,1.946-4.347,4.348-4.347h5.875C16.958,40.678,18.901,42.623,18.901,45.024L18.901,45.024z"/>
		<path fill="#DE374B" d="M59.872,42.818c0,2.402-1.944,4.348-4.346,4.348H49.65c-2.4,0-4.348-1.945-4.348-4.348l0,0
			c0-2.399,1.947-4.345,4.348-4.345h5.876C57.928,38.474,59.872,40.419,59.872,42.818L59.872,42.818z"/>
		<path fill="#DE374B" d="M61.694,24.678c0,2.401-1.945,4.348-4.349,4.348h-5.875c-2.397,0-4.348-1.946-4.348-4.348l0,0
			c0-2.399,1.95-4.345,4.348-4.345h5.875C59.749,20.333,61.694,22.279,61.694,24.678L61.694,24.678z"/>
		<path fill="#DE374B" d="M53.677,10.987c0,2.401-1.944,4.347-4.346,4.347h-5.875c-2.399,0-4.349-1.946-4.349-4.347l0,0
			c0-2.399,1.949-4.347,4.349-4.347h5.875C51.732,6.64,53.677,8.587,53.677,10.987L53.677,10.987z"/>
		<path fill="#DE374B" d="M26.904,8.748c0,2.401-1.946,4.346-4.347,4.346h-5.875c-2.399,0-4.347-1.944-4.347-4.346l0,0
			c0-2.401,1.948-4.347,4.347-4.347h5.875C24.958,4.4,26.904,6.346,26.904,8.748L26.904,8.748z"/>
	</g>
</g>
</svg>
